!!!COM: Beethoven, Ludwig van
!!!CDT: 1770///-1827///
!!!OTL: Piano Sonata no. 24 in F-sharp major
!!!OTP:	&agrave; Th&eacute;r&egrave;se
!!!ODT: 1809///
!!!OPS: 78
!!!OMV: 1
!!!OMD: Adagio cantabile
**kern	**kern	**dynam
*staff2	*staff1	*staff1/2
*Ipiano	*Ipiano	*Ipiano
*>[I,A,A1,A,A2,B,B1,B,B2]	*>[I,A,A1,A,A2,B,B1,B,B2]	*>[I,A,A1,A,A2,B,B1,B,B2]
*>norep[I,A,A2,B,B2]	*>norep[I,A,A2,B,B2]	*>norep[I,A,A2,B,B2]
*>I	*>I	*>I
*clefF4	*clefG2	*clefG2
*k[f#c#g#d#a#e#]	*k[f#c#g#d#a#e#]	*k[f#c#g#d#a#e#]
*F#:	*F#:	*F#:
*M2/4	*M2/4	*M2/4
*MM120	*MM120	*MM120
*MM60	*MM60	*MM60
=1-	=1-	=1-
2FFF# 2FF#	4A# (>4c#	pp
.	8.A# 8.c# 8.f#L	.
.	16B 16e# 16g#Jk)	.
=2	=2	=2
2FFF# 2FF#	4B 4e# (>4g#	.
.	8c# 8f# 8a#L	.
.	8c# 8en 8a#J)	.
=3	=3	=3
*	*^	*
2FFF# 2FF#	(4bSSs	4d# 4f#	.
.	8.dd#L	4e#X 4g#	.
.	16cc#Jk)	.	.
=4	=4	=4	=4
4FFF#; 4FF#;	(32bLLL	8f#	.
.	32a#	.	.
.	32dd#	.	.
.	32cc#JJJ)	.	.
.	8cc#/;	8ryy	.
*	*v	*v	*
=||	=||	=||
!!!OMD: Allegro ma non troppo
*MM120	*MM120	*MM120
!	!	!LO:DY:i:t=%s dolce
4r	(8.a#L	p
.	16bJk)	.
=5	=5	=5
*	*^	*
(8FF#L	(>4cc#/	4ryy	.
8F#	.	.	.
8A#	4f#	4c#	.
8F#J	.	.	.
8BL	4e#	4c#	.
8F#	.	.	.
8A#	4f#)	4c#	.
8F#J)	.	.	.
*	*v	*v	*
!!LO:LB:g=original
=6!|:	=6!|:	=6!|:
*>A	*>A	*>A
8G#L	2.B 2.c# 2.e# 2.b	.
8C#	.	.
8G#	.	.
8C#J	.	.
8G#L	.	.
8C#	.	.
8E#	4G# 4c# (4g#	.
8C#J	.	.
=7	=7	=7
*^	*	*
8FF#L	2.FF#	4A# 4c# 4a#	<
8F#	.	.	.
8BB	.	4d# 4dd#	.
8F#J	.	.	.
8AA#L	.	4c# 4cc#	.
8F#	.	.	.
8D#	4FF#	4f# 4ff#	.
8F#J	.	.	[
=8	=8	=8	=8
8C#L	4FF#	4e# 4ee#	>
8F#	.	.	.
8BB	4FF#	4d# 4dd#	.
8F#J	.	.	.
8AA#L	4FF#	4c# 4cc#)	.
8F#J	.	.	]
!	!	!LO:TX:b:i:t=leggiermente	!
4r	4r	16a#LL	.
.	.	16b	.
.	.	16a#	.
.	.	16f#JJ	.
*v	*v	*	*
=9	=9	=9
4r	16bLL	.
.	16cc#	.
.	16b	.
.	16g#JJ	.
16C#LL	4e#	.
16E#	.	.
16G#	.	.
16BJJ	.	.
4C#	4r	.
4r	16bLL	.
.	16cc#	.
.	16b	.
.	16g#JJ	.
!!LO:LB:g=original
=10	=10	=10
4r	16cc#LL	.
.	16dd#	.
.	16cc#	.
.	16a#JJ	.
16AA#LL	4f#	.
16C#	.	.
16F#	.	.
16A#JJ	.	.
4AA#	4r	.
(12FF#L	(12ff#L	<
12GG#	12ee#	.
12AA#J	12dd#J	.
=11	=11	=11
*^	*	*
*	*	*Xtuplet	*
2BB)	2ryy	12cc#L	.
.	.	12b	.
.	.	12a#J)	.
.	.	(12g#L	.
.	.	12f#	.
.	.	12e#J	.
(4C#	2C#	12d#L	.
.	.	12c#	.
.	.	12B#J	.
4Bn)	.	12c#L	.
.	.	12d#	.
.	.	12e#J)	.
*v	*v	*	*
=12	=12	=12
4F# (4A#	4c# (4f#	p
4C# 4G#	4c# 4e# 4g#	.
4FF#\ 4F#\)	4c# 4f# 4a#)	.
4r	4r	.
=13	=13	=13
4F# 4A#	4c# 4f# 4a#	.
4r	4r	.
4BB 4D# 4G#	4d# 4g# 4b	.
4r	4r	.
=14	=14	=14
(4C#	4c# 4e# (4g#	.
4FF#	4c# 4f# 4a#	.
4CC#)	4c# 4g# 4b)	.
4r	4r	.
!!LO:LB:g=original
=15	=15	=15
4E# 4G# 4B	4c# 4g# 4b	.
4r	4r	.
4C# 4E# 4G# 4B	4c# 4e# 4g# 4cc#	.
4r	4r	.
=16	=16	=16
4F# 4A#	4c# 4f# 4a#	.
4r	16cc#LL	.
.	16dd#	.
.	16cc#	.
.	16a#JJ	.
4r	[2ff#	.
*clefG2	*	*
(4f# 4a#	.	.
=17	=17	=17
2.g#z) 2.bz	4ff#]	.
.	(8.ee#SsSL	.
.	16ff#Jk	.
.	4gg#z	.
4g#z 4bz	4ee#)	.
=18	=18	=18
([2g# 2a#	16cc##LL	p
.	16bb	.
.	16aa#	.
.	16cc##JJ	.
.	16cc##LL	.
.	16bb	.
.	16aa#	.
.	16cc##JJ	.
4e#) 4g#]	16cc##LL	.
.	16bb	.
.	16aa#	.
.	16cc##JJ	.
4A# 4e# 4g#	16cc##LL	.
.	16bb	.
.	16aa#	.
.	16cc##JJ	.
!!LO:LB:g=original
=19	=19	=19
4A# 4d# (4f#	16dd#LL	.
.	16bb	.
.	16aa#	.
.	16dd#JJ	.
4G# 4c## 4e#	16ee#LL	.
.	16bb	.
.	16aa#	.
.	16ee#JJ	.
*clefF4	*	*
4F# 4A# 4d#)	16ff#LL	.
.	16bb	.
.	16aa#	.
.	16ff#JJ	.
4F# 4A# 4d#	16ddd#LL	.
.	16aa#	.
.	16ff#	.
.	16dd#JJ	.
=20	=20	=20
4F#^ 4G##^ 4d#^	16bb#LL	.
.	16ff#	.
.	16dd#	.
.	16bb#JJ	.
4F# 4G# 4d#	16ddd#LL	.
.	16ff#	.
.	16dd#	.
.	16ccc#JJ	.
4F#^ 4G##^ 4d#^	16bb#LL	.
.	16ff#	.
.	16dd#	.
.	16bb#JJ	.
4F# 4G# 4d#	16ddd#LL	.
.	16ff#	.
.	16dd#	.
.	16ccc#JJ	.
=21	=21	=21
4F#^ 4G##^ 4d#^	16bb#LL	.
.	16ff#	.
.	16dd#	.
.	16bb#JJ	.
4F# 4G# 4d#	16ddd#LL	.
.	16ff#	.
.	16dd#	.
.	16ddd#JJ	.
4r	16gg#LL	.
.	16ff#	.
.	16dd#	.
.	16gg#JJ	.
4F# 4A# 4d#	16aa#LL	.
.	16ff#	.
.	16dd#	.
.	16aa#JJ	.
!!LO:LB:g=original
=22	=22	=22
4F#^ 4G##^ 4d#^	16bb#LL	.
.	16ff#	.
.	16dd#	.
.	16bb#JJ	.
4F# 4G# 4d#	16ddd#LL	.
.	16ff#	.
.	16dd#	.
.	16ccc#JJ	.
4F#^ 4G##^ 4d#^	16bb#LL	.
.	16ff#	.
.	16dd#	.
.	16bb#JJ	.
4F# 4G# 4d#	16ddd#LL	.
.	16ff#	.
.	16dd#	.
.	16ccc#JJ	.
=23	=23	=23
4F#^ 4G##^ 4d#^	16bb#LL	.
.	16ff#	.
.	16dd#	.
.	16bb#JJ	.
4F# 4G# 4d#	16ddd#LL	.
.	16ff#	.
.	16dd#	.
.	16ddd#JJ	.
4r	16gg#LL	.
.	16ff#	.
.	16dd#	.
.	16gg#JJ	.
4F# 4A# 4d#	16aa#LL	.
.	16ff#	.
.	16dd#	.
.	16aa#JJ	.
=24	=24	=24
!	!	!LO:HP:t=crescendo
4F# 4G# 4d#	16bb#LL	<
.	16gg#	.
.	16dd#	.
.	16bb#JJ	.
!LO:TX:b:i:t=tenuto	!	!
4E#~y 4G#~y 4c#~y	(16ccc#LL	.
.	16gg#	.
.	16cc#	.
.	16ccc#'JJ)	.
4E#~y 4G#~y 4c#~y	(16ccc#LL	.
.	16gg#	.
.	16cc#	.
.	16ccc#'JJ)	.
4E#~y 4G#~y 4c#~y	(16ccc#LL	.
.	16gg#	.
.	16cc#	.
.	16ccc#'JJ)	.
!!LO:LB:g=original
=25	=25	=25
*ped	*	*
4En 4Gn 4c#	(16ccc#LL	.
.	16ff##	.
.	16cc#	.
.	16ccc#'JJ)	.
4E 4G 4c#	(16ccc#LL	.
.	16ff##	.
.	16cc#	.
.	16ccc#'JJ)	.
4E 4G 4c#	(16ccc#LL	.
.	16ff##	.
.	16cc#	.
.	16ccc#'JJ)	.
4E 4G 4c#	(16ccc#LL	.
.	16ff##	.
.	16cc#	.
*Xped	*	*
.	16ccc#'JJ)	.
=26	=26	=26
*ped	*	*
4AAn 4C# 4En 4Gn	(16ccc#LL	f
.	16ff##	.
.	16cc#	.
.	16ccc#'JJ)	.
4AA 4C# 4E 4G	(16ccc#LL	.
.	16ff##	.
.	16cc#	.
.	16ccc#'JJ)	.
4AA 4C# 4E 4G	(16ccc#LL	.
.	16ff##	.
.	16cc#	.
.	16ccc#'JJ)	.
4AA 4C# 4E 4G	(16ccc#LL	.
.	16ff##	.
.	16cc#	.
*Xped	*	*
.	16ccc#'JJ)	.
=27	=27	=27
1G#X 1d#TT	(16ccc#LL	ff
.	16ff#X	.
.	16cc#	.
.	16ccc#'JJ)	.
.	(16ccc#LL	.
.	16ff#	.
.	16cc#	.
.	16ccc#'JJ)	.
.	(16bb#LL	.
.	16ff#	.
.	16b#	.
.	16bb#'JJ)	.
.	(16bb#'LL	.
.	16ff#	.
.	16b#	.
.	16bb#'JJ)	.
!!LO:LB:g=original
=28	=28	=28
4C# 4c#	4cc# 4ee# 4ccc#	.
4r	4r	.
*clefG2	*	*
!	!	!LO:DY:i:t=%s dolce
*Xtuplet	*	*
(12c#L	(12ee#L	p
12d#	12cc#	.
12e#J	12g#J	.
12f#L	12a#L<	.
12c#	12cc#	.
12f#J	12a#J)	.
=29	=29	=29
*^	*	*
4c#) 4e#	2.ryy	(12g#L	.
.	.	12cc#	.
.	.	12dd#J	.
4r	.	12ee#L	.
.	.	12cc#	.
.	.	12gg#J	.
*clefF4	*	*	*
(>12C#L>	.	12ee#L	.
12D#	.	12cc#	.
12E#J	.	12g#J	.
12F#L	4GG#	12f#L	.
12D#	.	12d#	.
12G#J	.	12g#J	.
=30	=30	=30	=30
4E#)	4C#	4e#)	.
4r	4ryy	(12g#L	.
.	.	12cc#	.
.	.	12dd#J	.
*clefG2	*	*	*
(12c#L	4ryy	12ee#L	.
12d#	.	12cc#	.
12e#J	.	12g#J	.
12f#L	4ryy	12a#L	.
12c#	.	12cc#	.
12f#J	.	12a#J	.
*v	*v	*	*
=31	=31	=31
4c#) 4e#	12g#L	.
.	12cc#	.
.	12dd#J	.
4r	12ee#L	.
.	12cc#	.
.	12gg#J)	.
*clefF4	*	*
!	!	!LO:DY:rj
4A# (4e#	(4g#\ 4cc##\	f
4D# 4d#)	4f#\ 4dd#\)	.
!!LO:LB:g=original
=32	=32	=32
2G# 2d#	2f# 2b#	sf
2GG#\ 2D#\ 2F#\	16f#LL	p
.	16g#	.
.	16f#	.
.	16e#JJ	.
.	16f#LL>	.
.	16dd#	.
.	16cc#X	.
.	16b#JJ	.
=33	=33	=33
4C# 4E#	16cc#LL	.
.	16g#	.
.	16cc#	.
.	16ee#JJ	.
4r	16gg#LL	.
.	16ccc#	.
.	16eee#	.
.	16ddd#JJ	.
*clefG2	*	*
4a# (4ee#	4gg# (4ccc##	f
4d#\ 4dd#\)	4ff# 4ddd#)	.
=34	=34	=34
2g# 2dd#	2ff# 2bb#	sf
*clefF4	*	*
2G# 2d# 2f#	16ff#LL	p
.	16gg#	.
.	16ff#	.
.	16ee#JJ	.
.	16ff#LL	.
.	16ddd#	.
.	16ccc#X	.
.	16bb#JJ	.
=35	=35	=35
4c# 4e#	16ccc#LL	.
.	16gg#	.
.	16ee#	.
.	16cc#JJ	.
4r	16g#LL	.
.	16cc#	.
.	16g#	.
.	16e#JJ	.
2GG#\ 2D#\ 2F#\	16f#LL	.
.	16g#	.
.	16f#	.
.	16e#JJ	.
.	16f#LL>	.
.	16dd#	.
.	16cc#	.
.	16b#JJ	.
!!LO:LB:g=original
=36	=36	=36
4C# 4E#	16cc#LL	.
.	16g#	.
.	16e#	.
.	16c#JJ	.
4r	16G#LL	.
.	16c#	.
.	16G#	.
.	16E#<JJ	.
16FF#LL	4r	p
16GG#	.	.
16FF#	.	.
16EE#JJ	.	.
16FF#LL	4G# 4B# 4d# 4f#	p
16GG#	.	.
16AA#	.	.
16BB#JJ	.	.
=37	=37	=37
16C#LL	4r	.
16D#	.	.
16E#	.	.
16F#JJ	.	.
16G#LL	4B# 4d# 4f#	.
16F#	.	.
16E#	.	.
16D#JJ	.	.
16C#LL	4r	.
16BB#	.	.
16AA#	.	.
16GG#JJ	.	.
16AA#LL	4B# 4d# 4f# 4g#	.
16GG#	.	.
16AA#	.	.
16BB#JJ	.	.
=38	=38	=38
*>A1	*>A1	*>A1
16C#LL	4r	.
16D#	.	.
16E#	.	.
16F#JJ	.	.
16G#LL	4Bn 4c# 4e# 4g#	p
16F#	.	.
16E#	.	.
16F#JJ	.	.
16G#LL	4r	.
16F#	.	.
16E#	.	.
16D#JJ	.	.
16C#LL	(8.A# 8.a#L	.
16BB	.	.
16AA#	.	.
16GG#JJ	16B) 16bJk	.
!!LO:LB:g=original
=39	=39	=39
(8FF#L	4c# (4cc#	.
8F#	.	.
8A#	4c# 4f#	.
8F#J	.	.
8BL	4c# 4e#	.
8F#	.	.
8A#	4c# 4f#)	.
8F#J)	.	.
=40:|!	=40:|!	=40:|!
*>A2	*>A2	*>A2
16C#LL	4r	.
16D#	.	.
16E#	.	.
16F#JJ	.	.
16G#LL	4Bn 4c# 4e# 4g#	p
16An	.	.
16B	.	.
16c#JJ	.	.
16dnLL	4r	.
16c#	.	.
16B	.	.
16AJJ	.	.
16c#LL	(8.anL	.
16B	.	.
16A	.	.
16G#JJ	16bJk)	.
=41!|:	=41!|:	=41!|:
*>B	*>B	*>B
8FF#\ 8F#\	(4cc#	.
8F#L	.	.
8An	4c# 4f#	.
8F#J	.	.
8BL	4c# 4e#	.
8F#	.	.
8A	4c# 4f#)	.
8F#J	.	.
=42	=42	=42
*^	*	*
!	!	!	!LO:HP:b=2
8BBL	2.BB	2.dn 2.f# 2.ddn	<
8F#	.	.	.
8B	.	.	.
8F#J	.	.	.
8BL	.	.	.
8F#	.	.	.
8An	4AAn	4d 4f# 4dd	.
8F#J	.	.	.
!!LO:LB:g=original
=43	=43	=43	=43
*	*	*^	*
8G#L	4GG#	(2ddnT	2b	.
8En	.	.	.	.
8F#	4FF#	.	.	.
8EJ	.	.	.	.
!	!	!	!	!LO:HP:i:t=dim.
8EEnL	2ryy	4.een	4g#	>
8E	.	.	.	.
8GG#	.	.	4en	.
8G#J	.	8b)	.	.
*v	*v	*	*	*
*	*v	*v	*
=44	=44	=44
4AAn 4An	16cc#LL	p
.	16een	.
.	16cc#	.
.	16eeJJ	.
4r	16cc#LL	.
.	16ee	.
.	16cc#	.
.	16eeJJ	.
*clefG2	*	*
!	!	!LO:DY:b=2
4g#	16cc#LL	pp
.	16ee	.
.	16cc#	.
.	16eeJJ	.
4r	16cc#LL	.
.	16ee	.
.	16cc#	.
.	16eeJJ	.
=45	=45	=45
*	*^	*
4f##	2.ryy	16cc#LL	.
.	.	16dd#	.
.	.	16cc#	.
.	.	16dd#JJ	.
*clefF4	*	*	*
(8.BBL	.	16bLL	.
.	.	16dd#	.
.	.	16b	.
16C#Jk)	.	16dd#JJ	.
(4D#/	.	16bLL	.
.	.	16dd#	.
.	.	16b	.
.	.	16dd#JJ	.
!	!	!	!LO:DY:a::rj
4GG#)	(8.bbL	16bLL	f
.	.	16dd#	.
.	.	16bJJ	.
.	16ccc#Jk)	16r	.
*	*v	*v	*
!!LO:LB:g=original
=46	=46	=46
16G# 16BLL	4dd# (4ddd#	f
16d#	.	.
16G# 16B	.	.
16d#JJ	.	.
16G# 16BLL	4g# 4gg#	.
16d#	.	.
16G# 16B	.	.
16d#JJ	.	.
16A# 16c#LL	4f## 4ff##	.
16d#	.	.
16A# 16c#	.	.
16d#JJ	.	.
16G# 16BLL	4g# 4gg#)	.
16d#	.	.
16G# 16B	.	.
16d#JJ	.	.
*clefG2	*	*
=47	=47	=47
*^	*	*
4c## 4e#	2.ryy	16gg#LL	.
.	.	16bb	.
.	.	16aa#	.
.	.	16gg#JJ	.
4r	.	16gg#LL	p
.	.	16bb	.
.	.	16aa#	.
.	.	16gg#JJ	.
4r	.	16gg#LL	.
.	.	16bb	.
.	.	16aa#	.
.	.	16gg#JJ	.
(8.e#L	4c##	16gg#LL	.
.	.	16bb	.
.	.	16aa#	.
16f#Jk	.	16gg#JJ	.
*v	*v	*	*
=48	=48	=48
4c## 4e# 4g#)	16gg#LL	.
.	16bb	.
.	16aa#	.
.	16gg#JJ	.
4r	16bbLL	.
.	16gg#	.
.	16ff#X	.
.	16ee#XJJ	.
4r	16bbLL	.
.	16gg#	.
.	16ff#	.
.	16ee#JJ	.
(8.c## 8.e#L	16aa#LL	.
.	16gg#	.
.	16ff#	.
16a#Jk)	16ee#JJ	.
!!LO:LB:g=original
=49	=49	=49
8d# 8f#	16ff#LL	.
.	16aa#	.
8r	16gg#	.
.	16ff#JJ	.
*clefF4	*	*
8.D# (8.F#L	16gg#LL	.
.	16ff#	.
.	16ee#	.
16A#Jk)	16dd#JJ	.
8E# 8G#	16cc##LL	.
.	16ee#	.
8r	16dd#	.
.	16cc##JJ	.
*clefG2	*	*
(8.c## 8.e#L	16aa#LL	.
.	16gg#	.
.	16ff#	.
16a#Jk)	16ee#JJ	.
=50	=50	=50
8d# 8f#	16ff#LL	.
.	16aa#	.
8r	16gg#	.
.	16ff#JJ	.
*clefF4	*	*
8.D# (8.F#L	16gg#LL	.
.	16ff#	.
.	16ee#	.
16A#Jk)	16dd#JJ	.
8D# 8F# 8G#	16b#LL	.
.	16dd#	.
8r	16cc#X	.
.	16b#JJ	.
*clefG2	*	*
(8.B# 8.d#L	16gg#LL	.
.	16ff#	.
.	16een	.
16g#Jk)	16dd#JJ	.
=51	=51	=51
8c# 8en	16eenLL	.
.	16gg#	.
8r	16ff#	.
.	16eeJJ	.
*clefF4	*	*
8.C# (8.EnL	16ff#LL	.
.	16ee	.
.	16dd#	.
16G#Jk)	16cc#JJ	.
8D# 8F#	16b#LL	.
.	16dd#	.
8r	16cc#	.
.	16b#JJ	.
*clefG2	*	*
(8.B# 8.d#L	16gg#LL	.
.	16ff#	.
.	16ee	.
16g#Jk)	16dd#JJ	.
!!LO:LB:g=original
=52	=52	=52
8c# 8en	16eenLL	.
.	16gg#	.
8r	16ff#	.
.	16eeJJ	.
*clefF4	*	*
8.C# (8.EnL	16ff#LL	.
.	16ee	.
.	16dd#	.
16G#Jk)	16cc#JJ	.
8C# 8E 8F#	16a#LL<	.
.	16cc#	.
8r	16bn	.
.	16a#JJ	.
*clefG2	*	*
(8.A# 8.c#L	16ff#LL	.
.	16ee	.
.	16dd#	.
16f#Jk)	16cc#JJ	.
=53	=53	=53
8B 8d#	16bLL	.
.	16dd#	.
8r	16cc#	.
.	16bJJ	.
*clefF4	*	*
(8.AA# 8.C#L>	16ff#LL	.
.	16een	.
.	16dd#	.
16F#Jk)	16cc#JJ	.
8BB 8D#	16bLL	.
.	16dd#	.
8r	16cc#	.
.	16bJJ	.
*clefG2	*	*
16f#LL	16ff#LL	<
16en	16ee	.
16d#	16dd#	.
16c#JJ	16cc#JJ	.
=54	=54	=54
8B	16bLL	.
.	16dd#	.
8r	16cc#	.
.	16bJJ	.
16bLL	16bbLL	.
16a#	16aa#	.
16g#	16gg#	.
16f#JJ	16ff#JJ	.
8e#X	16ee#XLL	.
.	16gg#	.
8r	16ff#	.
.	16ee#JJ	.
16bLL	16bbLL	.
16a#	16aa#	.
16g#	16gg#	.
16f#JJ	16ff#JJ	.
!!LO:LB:g=original
=55	=55	=55
8e#	16ee#LL	.
.	16gg#	.
8r	16ff#	.
.	16ee#JJ	.
16dd#LL	16ddd#LL	.
16cc#	16ccc#	.
16b	16bb	.
16a#JJ	16aa#JJ	.
16g#LL	16gg#LL	.
16b	16bb	.
16a#	16aa#	.
16g#JJ	16gg#JJ	.
16f#LL	16ff#LL	.
16e#	16ee#	.
16d#	16dd#	.
16c#JJ	16cc#JJ	.
*clefF4	*	*
=56	=56	=56
16BLL	16bLL	.
16d#	16dd#	.
16c#	16cc#	.
16BJJ	16bJJ	.
16A#LL	16a#LL	.
16G#	16g#	.
16F#	16f#	.
16E#JJ	16e#JJ	.
16BLL	16bLL	.
16A#	16a#	.
16G#	16g#	.
16F#JJ	16f#JJ	.
16E#LL<	16e#LL	.
16D#	16d#	.
16C#	16c#	.
16BB#JJ	16B#JJ	.
=57	=57	=57
*^	*^	*
2C#	1C#	2c#	1c#	ff
2E#	.	2e#	.	.
*v	*v	*	*	*
*	*v	*v	*
=58	=58	=58
(12G#L	2.c# 2.e# 2.g#	.
12A#	.	.
12G#J	.	.
!	!	!LO:HP:i:t=dim.
12F#L	.	>
12E#	.	.
12D#J	.	.
12C#L<	.	.
12D#	.	.
12C#J	.	.
12BBnL	(8.f# 8.a#L	.
12AA#	.	.
12GG#J)	.	.
.	16g#) 16bJk	.
!!LO:LB:g=original
=59	=59	=59
(8FF#L	4c# 4a# (4cc#	.
8F#	.	.
8A#	4c# 4f#	.
8F#J	.	.
8BL	4c# 4e#	.
8F#	.	.
8A#	4c# 4f#)	.
8F#J)	.	.
=60	=60	=60
(8G#L	2.B 2.c# 2.e# 2.b	.
8C#	.	.
8G#	.	.
8C#J	.	.
8G#L	.	.
8C#	.	.
8E#	4G# 4c# (4g#	.
8C#J)	.	.
=61	=61	=61
*^	*	*
8FF#L	2.FF#	4A# 4c# 4a#	<
8F#	.	.	.
8BB	.	4d# 4dd#	.
8F#J	.	.	.
8AA#L	.	4c# 4cc#	.
8F#	.	.	.
8D#	4FF#	4f# 4ff#	.
8F#J	.	.	[
=62	=62	=62	=62
8C#L	4FF#	4e# 4ee#	>
8F#	.	.	.
8BB	4FF#	4d# 4dd#)	.
8F#J	.	.	.
8AA#L	4FF#	4c# 4cc#	]
8F#J	.	.	.
!	!	!LO:TX:b:i:t=leggier.	!
4r	4r	16a#LL	.
.	.	16b	.
.	.	16a#	.
.	.	16f#JJ	.
*v	*v	*	*
!!LO:LB:g=original
=63	=63	=63
4r	16bLL	.
.	16cc#	.
.	16b	.
.	16g#JJ	.
16C#LL	4e#	.
16E#	.	.
16G#	.	.
16BJJ	.	.
4C#	4r	.
4r	16bLL	.
.	16cc#	.
.	16b	.
.	16g#JJ	.
=64	=64	=64
4r	16cc#LL	.
.	16dd#	.
.	16cc#	.
.	16a#JJ	.
16AA#LL	4f#	.
16C#	.	.
16F#	.	.
16A#JJ	.	.
4AA#	4r	.
4r	16a#LL	.
.	16b	.
.	16a#	.
.	16f#JJ	.
=65	=65	=65
4r	16cc#LL	.
.	16dd#	.
.	16cc#	.
.	16a#JJ	.
16D#LL	4f##	.
16F##	.	.
16A#	.	.
16c#JJ	.	.
4D#	4r	.
4r	16cc#LL	.
.	16dd#	.
.	16cc#	.
.	16a#JJ	.
!!LO:LB:g=original
=66	=66	=66
4r	16dd#LL	.
.	16een	.
.	16dd#	.
.	16bJJ	.
16BBLL	4g#	.
16D#	.	.
16G#	.	.
16BJJ	.	.
4BB	4r	.
4GG# 4BB 4En 4G#	(12eeenL	f
.	12ddd#	.
.	12ccc#J	.
=67	=67	=67
2AAn 2C# 2F#X 2An	12bbL	.
.	12aan	.
.	12gg#J	.
.	12ff#L	.
.	12een	.
.	12dd#J	.
2BB 2F# 2A 2B	12cc#L	.
.	12b	.
.	12a#XJ	.
.	12bL	.
.	12cc#	.
.	12dd#J)	.
=68	=68	=68
4En 4G# (4B	4en\ 4g#\ 4b\ (4een\	ff
4BB 4D# 4F# 4B	4f# 4b 4dd# 4ff#	.
4EEn 4GG# 4BB 4E)	4g# 4b 4ee 4gg#)	.
4r	4r	.
=69	=69	=69
4En 4G#	4B 4en 4g#	p
4r	4r	.
4AAn 4C# 4F#	4c# 4f# 4an	.
4r	4r	.
!!LO:LB:g=original
=70	=70	=70
4B 4d# (4f#	4b 4dd# (4ff#	f
4G# 4B 4c# 4e#X	4b 4cc# 4ee#X 4gg#	.
4F# 4An 4c# 4f#)	4an 4cc# 4ff# 4aan)	.
4r	4r	.
=71	=71	=71
4F# 4An	4c# 4f# 4an	p
4r	4r	.
4BB 4G#	4dn 4g# 4b	.
4r	4r	.
=72	=72	=72
4c# (4e#	4b 4cc# 4ee# (4gg#	f
4F# 4c# 4en	4a#X 4cc# 4een 4aa#X	.
4B 4dn)	4b 4ddn 4bb)	.
4r	4r	.
=73	=73	=73
4B 4dn	4f#\ 4b\ 4ddn\	p
4r	4r	.
4En 4Gn 4c#	4gn 4cc# 4een	.
4r	4r	.
=74	=74	=74
4F# 4A# (4c#	4a# 4cc# 4een (4aa#	f
4BB 4F# 4B	4b 4ddn 4bb	.
4AA# 4F# 4A#)	4cc# 4ee 4ccc#)	.
4r	4r	.
=75	=75	=75
4c# (4en	4a# (4cc#	p
4B 4d#X	4b 4dd#X	.
4A# 4c#)	4cc# 4een)	.
4r	4r	.
=76	=76	=76
4A# 4c#	4f#\ 4a#\ 4cc#\	.
4r	4r	.
4F# 4A#	4f# 4cc# 4een	.
4r	4r	.
*clefG2	*	*
!!LO:LB:g=original
=77	=77	=77
4B 4d#	4f# 4b 4dd#	.
4r	16ff#LL	.
.	16gg#	.
.	16ff#	.
.	16dd#JJ	.
4r	[2bb	.
4bz (4dd#z	.	.
=78	=78	=78
2.cc# 2.een)	4bb]	.
.	8.aa#SsSL	.
.	16bbJk	.
.	4ccc#z	.
4cc#z 4eez	4aa#	.
=79	=79	=79
*	*8va	*
((2cc# 2dd#	16ff##LL<	p
.	16eeen	.
.	16ddd#	.
.	16ff##JJ	.
.	16ff##LL<	.
.	16eee	.
.	16ddd#	.
.	16ff##JJ	.
4a# 4cc#))	16ff##LL<	.
.	16eee	.
.	16ddd#	.
.	16ff##JJ	.
(4d# 4a# 4cc#	16ff##LL<	.
.	16eee	.
.	16ddd#	.
.	16ff##JJ	.
=80	=80	=80
4d# 4g# 4b	16gg#LL	.
.	16eeen	.
.	16ddd#	.
.	16gg#JJ	.
4c# 4f## 4a#	16aa#LL	.
.	16eee	.
.	16ddd#	.
.	16aa#JJ	.
4B) 4d# 4g#	16bbLL	.
.	16eee	.
.	16ddd#	.
.	16bbJJ	.
4B 4d# 4g#	16ggg#LL	.
.	16ddd#	.
.	16bb	.
.	16gg#JJ	.
!!LO:LB:g=original
=81	=81	=81
4Bn^ 4d#^ 4g#^	16eee#XLL	.
.	16bb	.
.	16gg#	.
.	16eee#JJ	.
4B 4c# 4g#	16ggg#LL	.
.	16bb	.
.	16gg#	.
.	16fff#JJ	.
4B^ 4d#^ 4g#^	16eee#LL	.
.	16bb	.
.	16gg#	.
.	16eee#JJ	.
4B 4c# 4g#	16ggg#LL	.
.	16bb	.
.	16gg#	.
.	16fff#JJ	.
=82	=82	=82
4B^ 4dn^ 4g#^	16eee#LL	.
.	16bb	.
.	16gg#	.
.	16eee#JJ	.
4B 4c# 4g#	16ggg#LL	.
.	16bb	.
.	16gg#	.
.	16ggg#JJ	.
4r	16ccc#LL	.
.	16bb	.
.	16gg#	.
.	16ccc#JJ	.
4B 4d# 4g#	16ddd#LL	.
.	16bb	.
.	16gg#	.
.	16ddd#JJ	.
=83	=83	=83
4B^ 4dn^ 4g#^	16eee#LL	.
.	16bb	.
.	16gg#	.
.	16eee#JJ	.
4B 4c# 4g#	16ggg#LL	.
.	16bb	.
.	16gg#	.
.	16fff#JJ	.
4B^ 4d^ 4g#^	16eee#LL	.
.	16bb	.
.	16gg#	.
.	16eee#JJ	.
4B 4c# 4g#	16ggg#LL	.
.	16bb	.
.	16gg#	.
.	16fff#JJ	.
!!LO:LB:g=original
=84	=84	=84
4B^ 4dn^ 4g#^	16eee#LL	.
.	16bb	.
.	16gg#	.
.	16eee#JJ	.
4B 4c# 4g#	16ggg#LL	.
.	16bb	.
.	16gg#	.
.	16ggg#JJ	.
4r	16ccc#LL	.
.	16bb	.
.	16gg#	.
.	16ccc#JJ	.
4B 4d# 4g#	16ddd#LL	.
.	16bb	.
.	16gg#	.
.	16ddd#JJ	.
=85	=85	=85
4B 4c# 4g#	(16eee#LL	.
.	16ccc#)	.
.	16gg#	.
.	16eee#'JJ	.
!LO:TX:b:i:t=tenuto	!	!
4A#~y 4c#~y 4f#~y	(16fff#LL	<
.	16ccc#)	.
.	16ff#	.
.	16fff#'JJ	.
4A#~y 4c#~y 4f#~y	16fff#LL	.
.	(16ccc#	.
.	16ff#)	.
.	16fff#'JJ	.
4A#~y 4c#~y 4f#~y	(16fff#LL	.
.	16ccc#)	.
.	16ff#	.
.	16fff#'JJ	.
=86	=86	=86
*ped	*	*
4An 4cn 4f#	(16fff#LL	.
.	16bb#)	.
.	16ff#	.
.	16fff#'JJ	.
4A 4c 4f#	(16fff#LL	.
.	16bb#)	.
.	16ff#	.
.	16fff#'JJ	.
4A 4c 4f#	(16fff#LL	.
.	16bb#)	.
.	16ff#	.
.	16fff#'JJ	.
4A 4c 4f#	(16fff#LL	.
.	16bb#)	.
.	16ff#	.
*Xped	*	*
.	16fff#'JJ	.
*clefF4	*	*
!!LO:LB:g=original
=87	=87	=87
*ped	*	*
4DDn 4FF# 4AAn 4Cn	(16fff#LL	f
.	16bb#)	.
.	16ff#	.
.	16fff#'JJ	.
4DD 4FF# 4AA 4C	(16fff#LL	.
.	16bb#	.
.	16ff#)	.
.	16fff#'JJ	.
4DD 4FF# 4AA 4C	(16fff#LL	.
.	16bb#)	.
.	16ff#	.
.	16fff#'JJ	.
4DD 4FF# 4AA 4C	(16fff#LL	.
.	16bb#	.
.	16ff#)	.
*Xped	*	*
.	16fff#'JJ	.
=88	=88	=88
1C#X 1G#TT	(16fff#LL	ff
.	16bbn	.
.	16ff#)	.
.	16fff#'JJ	.
.	(16fff#LL	.
.	16bb	.
.	16ff#)	.
.	16fff#'JJ	.
.	(16eee#LL	.
.	16bb	.
.	16ee#)	.
.	16eee#'JJ	.
.	(16eee#LL	.
.	16bb)	.
.	16ee#	.
.	16eee#'JJ	.
=89	=89	=89
4FF# 4F#	4ff# 4aa# 4fff#	.
*	*X8va	*
4r	4r	.
*clefG2	*	*
!	!	!LO:DY:i:t=%s dolce
(12f#L	(12aa#L	p
12g#	12ff#	.
12a#J	12cc#J	.
12bL	12dd#L	.
12f#	12ff#	.
12bJ	12dd#J	.
!!LO:LB:g=original
=90	=90	=90
*^	*	*
4f# 4a#)	2ryy	12cc#L	.
.	.	12ff#	.
.	.	12gg#J	.
4r	.	12aa#L	.
.	.	12ff#	.
.	.	12ccc#J	.
*clefF4	*	*	*
4ryy	(>12F#L	12aa#L	.
.	12G#	12ff#	.
.	12A#J	12cc#J	.
12BL	4C#	12bL	.
12G#	.	12g#	.
12c#J)	.	12cc#J	.
*v	*v	*	*
=91	=91	=91
4F# 4A#	4a#)	.
4r	(12cc#L	.
.	12ff#	.
.	12gg#J	.
*clefG2	*	*
(12f#L	12aa#L	.
12g#	12ff#	.
12a#J	12cc#J	.
12bL	12dd#L	.
12f#	12ff#	.
12bJ)	12dd#J	.
=92	=92	=92
4f# 4a#	12cc#L	.
.	12ff#	.
.	12gg#J	.
4r	12aa#L	.
.	12ff#	.
.	12ccc#J)	.
(4d# 4f## 4a#	4cc# 4dd# (4ff##	f
4G#) 4B 4d# 4g#	4b 4dd# 4gg#)	.
!!LO:LB:g=original
=93	=93	=93
2c# 2e# 2g#	2b 2cc# 2ee#	sf
*clefF4	*	*
2C# 2G# 2B	16bLL	p
.	16cc#	.
.	16b	.
.	16a#JJ	.
.	16bLL	.
.	16gg#	.
.	16ff#X	.
.	16ee#JJ	.
=94	=94	=94
4F# 4A#	16ff#LL	.
.	16cc#	.
.	16a#	.
.	16cc#JJ	.
*	*8va	*
4r	16ff#LL	.
.	16aa#	.
.	16ccc#	.
.	16fff#JJ	.
*clefG2	*	*
4d# 4f## 4a# 4cc# [4dd#	4ff## 4aa# 4ccc# 4ddd# (4fff##	f
4g#/ 4b/ 4dd#/]	4gg# 4bb 4ddd# 4ggg#)	.
=95	=95	=95
2c# 2e# 2g# 2b 2cc#	2ee# 2gg# 2bb 2ccc# 2eee#	sf
*clefF4	*	*
2C# 2G# 2B	16bbLL	p
.	16ccc#	.
.	16bb	.
.	16aa#JJ	.
.	16bbLL	.
.	16ggg#	.
.	16fff#	.
.	16eee#JJ	.
!!LO:LB:g=original
=96	=96	=96
4F# 4A#	16fff#LL	.
.	16ccc#	.
.	16aa#	.
.	16ff#JJ	.
*	*X8va	*
4r	16cc#LL	.
.	16ff#	.
.	16cc#	.
.	16a#JJ	.
2CC# 2GG# 2BB	16bLL	.
.	16cc#	.
.	16b	.
.	16a#JJ	.
.	16bLL	.
.	16gg#	.
.	16ff#	.
.	16ee#JJ	.
=97	=97	=97
4FF# 4AA#	16ff#LL	.
.	16cc#	.
.	16a#	.
.	16f#JJ	.
4r	16c#LL	.
.	16f#	.
.	16c#	.
.	16A#JJ	.
!	!	!LO:DY:b=2
16BBLL	4r	p
16C#	.	.
16BB	.	.
16AA#JJ	.	.
16BBLL	4c# 4e# 4g# 4b	.
16C#	.	.
16D#	.	.
16E#JJ	.	.
=98	=98	=98
16F#LL	4r	.
16G#	.	.
16A#	.	.
16BJJ	.	.
16c#LL	4e# 4g# 4b	.
16B	.	.
16A#	.	.
16G#JJ	.	.
16F#LL	4r	.
16E#	.	.
16D#	.	.
16C#JJ	.	.
16D#LL	4e# 4g# 4b 4cc#	.
16C#	.	.
16D#	.	.
16E#JJ	.	.
!!LO:LB:g=original
=99	=99	=99
16F#LL	4r	.
16G#	.	.
16A#	.	.
16BJJ	.	.
16c#LL	4f# 4a# 4cc#	.
16d#	.	.
16c#	.	.
16BJJ	.	.
16A#LL	4r	.
16B	.	.
16c#	.	.
16BJJ	.	.
16A#LL	(8.a#L	.
16B	.	.
16A#	.	.
16G#JJ	16bJk)	.
=100	=100	=100
16F#LL	4r	.
16G#	.	.
16A#	.	.
16BJJ	.	.
16c#LL	4en 4f# 4a# 4cc#	.
16B	.	.
16A#	.	.
16G#JJ	.	.
16F#LL	4r	.
16A#	.	.
16G#	.	.
16F#JJ	.	.
16EnLL<	(8.A# 8.a#L	.
16D#	.	.
16C#	.	.
16BBJJ	16B) 16bJk	.
=101	=101	=101
16AA#LL	4c# 4en (4cc#	<
16BB	.	.
16C#	.	.
16BBJJ	.	.
16AA#LL<	4c# 4e 4f#	.
16C#	.	.
16En	.	.
16F#JJ	.	.
16GnLL	4c# 4e 4gn	.
16E	.	.
16C#	.	.
16BBJJ	.	.
16AA#LL<	4c# 4e)	.
16C#	.	.
16E	.	.
16F#JJ	.	.
!!LO:LB:g=original
=102	=102	=102
16GnLL	4en 4gn 4een	.
16En	.	.
16C#	.	.
16BBJJ	.	.
16AA#LL	4e 4f# 4cc#	.
16C#	.	.
16F#	.	.
16A#JJ	.	.
16BBLL	4dn 4f# 4ddn	.
16Dn	.	.
16F#	.	.
16BJJ	.	.
16DLL	4d 4f# 4b	.
16F#	.	.
16B	.	.
16dnJJ	.	.
=103	=103	=103
16E#XLL	4b 4ddn 4bb	.
16G#X	.	.
16B	.	.
16dnJJ	.	.
*clefG2	*	*
16e#XLL	4b 4dd 4gg#	.
16g#	.	.
16b	.	.
16g#JJ	.	.
16e#LL	4gg# 4bb 4dddn	f >
16g#	.	.
16b	.	.
16g#JJ	.	.
16e#LL	4gg# 4bb 4ccc#	.
16g#	.	.
16b	.	.
16g#JJ	.	]
=104	=104	=104
16e#LL	4r	.
16b	.	.
16a#	.	.
16g#JJ	.	.
16cc#LL	4gg# 4bb 4ccc#	p
16b	.	.
16a#	.	.
16g#JJ	.	.
16f#LL	4r	.
16cc#	.	.
16b	.	.
16a#JJ	.	.
16ff#LL	4aa# 4ccc#	.
16ee#	.	.
16dd#	.	.
16cc#JJ	.	.
!!LO:LB:g=original
=105	=105	=105
16bLL>	4r	.
16a#	.	.
16dd#	.	.
16cc#JJ	.	.
16bLL	4aa# 4ccc#	<
16a#	.	.
16g#	.	.
16f#JJ	.	.
16e#LL	4r	.
16f#	.	.
16g#	.	.
16f#JJ	.	.
16B#LL	4aa# 4ccc#	.
16c#	.	.
16d#	.	.
16c#JJ	.	.
*clefF4	*	*
=106	=106	=106
16G##LL	4r	.
16A#	.	.
16Bn	.	.
16A#JJ	.	.
16E#LL	4ff#' 4aa#' 4ccc#' 4fff#'	f
16F#	.	.
16G#	.	.
16F#JJ	.	.
16BB#LL	4ff#' 4aa#' 4ccc#' 4fff#'	.
16C#	.	.
16D#	.	.
16C#JJ	.	.
16GG##LL	4ff#' 4aa#' 4ccc#' 4fff#'	.
16AA#	.	.
16BBn	.	.
16AA#JJ	.	.
=107	=107	=107
*>B1	*>B1	*>B1
4FF#	4ff#' 4aa#' 4ccc#' 4fff#'	.
16E#LL	4r	p
16F#	.	.
16G#	.	.
16F#JJ	.	.
16E#LL	4r	.
16F#	.	.
16G#	.	.
16F#JJ	.	.
16E#LL	(8.anL	.
16F#	.	.
16G#	.	.
16F#JJ	16bJk)	.
=108:|!	=108:|!	=108:|!
*>B2	*>B2	*>B2
4FF#	4ff#' 4aa#' 4ccc#' 4fff#'	.
4r	4r	.
2r	2r	.
==	==	==
*-	*-	*-
!!!RDF**kern: > = above
!!!RDF**kern: < = below
!!!verovio: beamFrenchStyle
!!!LOR: Durand 1915, plates 9327/9328, Paul Dukas, ed.
!!!PED: Dukas, Paul
!!!URL-vhv: https://verovio.humdrum.org/?file=beethoven/sonatas/sonata24-1.krn
!!!URL-pdf: https://github.com/craigsapp/beethoven-piano-sonatas/blob/master/reference-edition/sonata24-1.pdf
!!!ENC: Craig Stuart Sapp
!!!END: 2005/08/24
!!!EED: Craig Stuart Sapp
!!!EEV: 2020/08/26
